X: 437
P: Longways for as many as will
M: C|
L: 1/8
K: F
(af) (fc) f2 (ba) | g2 (fe) c3 a | (af) (ge) (fa) (gb) | a2 (gf) f3 |]
f |\
(ge) (fg) a2 (gf) | (ge) (fd) ^c3 a | (bg) (af) (ge) (fd) |
d3 ^c d2 zb | (ba) (ag) (gc) za | (af) (fd) (dB) zg |
(ge) (ec) (cA) (Bc) | A2 (GF) F3 |]

